sprites/actors/ghost_clyde/clyde_down_alternate.svg

<?xml version="1.0" encoding="UTF-8" standalone="no"?>
<!-- Created with Inkscape (http://www.inkscape.org/) -->

<svg
   width="100"
   height="100"
   viewBox="0 0 100 100"
   version="1.1"
   id="svg5"
   inkscape:version="1.2 (dc2aeda, 2022-05-15)"
   sodipodi:docname="clyde_down_alternate.svg"
   xmlns:inkscape="http://www.inkscape.org/namespaces/inkscape"
   xmlns:sodipodi="http://sodipodi.sourceforge.net/DTD/sodipodi-0.dtd"
   xmlns="http://www.w3.org/2000/svg"
   xmlns:svg="http://www.w3.org/2000/svg">
  <sodipodi:namedview
     id="namedview7"
     pagecolor="#ffffff"
     bordercolor="#000000"
     borderopacity="0.25"
     inkscape:showpageshadow="2"
     inkscape:pageopacity="0.0"
     inkscape:pagecheckerboard="0"
     inkscape:deskcolor="#d1d1d1"
     inkscape:document-units="px"
     showgrid="true"
     inkscape:zoom="5.5731762"
     inkscape:cx="46.203456"
     inkscape:cy="55.175001"
     inkscape:window-width="1920"
     inkscape:window-height="1016"
     inkscape:window-x="0"
     inkscape:window-y="0"
     inkscape:window-maximized="1"
     inkscape:current-layer="layer1">
    <inkscape:grid
       type="xygrid"
       id="grid2865" />
  </sodipodi:namedview>
  <defs
     id="defs2">
    <inkscape:perspective
       sodipodi:type="inkscape:persp3d"
       inkscape:vp_x="0 : 50 : 1"
       inkscape:vp_y="0 : 1000 : 0"
       inkscape:vp_z="100 : 50 : 1"
       inkscape:persp3d-origin="50 : 33.333333 : 1"
       id="perspective5340" />
  </defs>
  <g
     inkscape:label="Layer 1"
     inkscape:groupmode="layer"
     id="layer1">
    <path
       id="path13817"
       style="fill:#f16c00;fill-opacity:1;stroke-width:10"
       d="m 88.15059,38.241912 c 1.767402,5.650724 1.513313,11.354806 1.515831,16.912134 0.0069,15.133555 2.336145,24.776064 -0.602871,33.38026 -0.492324,1.441316 -1.689086,5.848597 -3.610477,1.54838 C 83.100192,84.81676 85.55901,75.404747 82.022006,74.4184 79.048972,73.589325 78.1126,71.478623 77.642758,73.947809 c -1.023113,5.376824 0.440872,13.441055 -1.430535,16.248481 -1.957218,2.936158 -5.152317,2.848855 -7.065666,1.170547 -2.506845,-2.198897 -3.1121,-10.913088 -4.452368,-15.257702 -1.124196,-3.644195 -7.244481,-4.808971 -8.628131,-1.740275 -0.693614,1.538316 -1.678405,12.278632 -4.302662,15.739552 -2.118493,2.793911 -6.948035,2.020945 -8.605859,-1.02408 -2.447128,-4.494787 -4.831419,-14.140717 -7.173869,-15.028734 -3.13367,-1.187966 -1.937056,-1.05557 -9.271286,0.786633 -3.165479,0.795101 -3.193092,13.005536 -5.018617,15.556746 -0.860913,1.203144 -8.642861,1.29061 -10.704526,-4.471318 C 9.9983419,83.158306 10.528036,56.442006 10.279775,53.627516 8.6674062,35.348351 19.89767,17.771464 38.127833,12.0641 46.669214,9.3900281 55.434158,9.7326425 63.274037,12.49111 74.743495,16.526648 84.233072,25.732745 88.146273,38.228118 L 50.05386,50.157593 Z"
       sodipodi:nodetypes="cssssssssssssssssssccc" />
    <path
       style="fill:#ffffff;fill-opacity:1;stroke-width:10"
       id="path14682-9"
       sodipodi:type="arc"
       sodipodi:cx="64.199112"
       sodipodi:cy="36.041782"
       sodipodi:rx="10.931968"
       sodipodi:ry="10.931968"
       sodipodi:start="5.9800505"
       sodipodi:end="5.9796884"
       sodipodi:arc-type="slice"
       d="M 74.632641,32.778442 A 10.931968,10.931968 0 0 1 67.463397,46.475016 10.931968,10.931968 0 0 1 53.766174,39.307012 10.931968,10.931968 0 0 1 60.932938,25.60914 10.931968,10.931968 0 0 1 74.631459,32.774664 l -10.432347,3.267118 z" />
    <path
       style="fill:#0000ff;fill-opacity:1;stroke-width:10"
       id="path14684-2"
       sodipodi:type="arc"
       sodipodi:cx="64.174232"
       sodipodi:cy="38.177784"
       sodipodi:rx="7.4334154"
       sodipodi:ry="7.4334154"
       sodipodi:start="5.9800505"
       sodipodi:end="5.9796884"
       sodipodi:arc-type="slice"
       d="m 71.268724,35.958809 a 7.4334154,7.4334154 0 0 1 -4.874874,9.313266 7.4334154,7.4334154 0 0 1 -9.313707,-4.874031 7.4334154,7.4334154 0 0 1 4.873188,-9.314149 7.4334154,7.4334154 0 0 1 9.314589,4.872345 l -7.093688,2.221544 z" />
    <path
       style="fill:#ffffff;fill-opacity:1;stroke-width:10"
       id="path14682-7"
       sodipodi:type="arc"
       sodipodi:cx="36.381718"
       sodipodi:cy="36.090141"
       sodipodi:rx="10.931968"
       sodipodi:ry="10.931968"
       sodipodi:start="5.9800505"
       sodipodi:end="5.9796884"
       sodipodi:arc-type="slice"
       d="M 46.815247,32.826801 A 10.931968,10.931968 0 0 1 39.646003,46.523375 10.931968,10.931968 0 0 1 25.94878,39.355371 10.931968,10.931968 0 0 1 33.115544,25.657499 10.931968,10.931968 0 0 1 46.814064,32.823023 L 36.381718,36.090141 Z" />
    <path
       style="fill:#0000ff;fill-opacity:1;stroke-width:10"
       id="path14684-5"
       sodipodi:type="arc"
       sodipodi:cx="36.356834"
       sodipodi:cy="38.226143"
       sodipodi:rx="7.4334154"
       sodipodi:ry="7.4334154"
       sodipodi:start="5.9800505"
       sodipodi:end="5.9796884"
       sodipodi:arc-type="slice"
       d="m 43.451326,36.007168 a 7.4334154,7.4334154 0 0 1 -4.874874,9.313266 7.4334154,7.4334154 0 0 1 -9.313708,-4.874032 7.4334154,7.4334154 0 0 1 4.873189,-9.314148 7.4334154,7.4334154 0 0 1 9.314589,4.872345 l -7.093688,2.221544 z" />
  </g>
</svg>

<svg width="100" height="100" xmlns="http://www.w3.org/2000/svg"><path d="M88.15 38.242c1.768 5.65 1.514 11.355 1.516 16.912.007 15.134 2.337 24.776-.602 33.38-.493 1.442-1.69 5.849-3.61 1.549-2.354-5.266.105-14.678-3.432-15.665-2.973-.829-3.91-2.94-4.38-.47-1.022 5.377.442 13.44-1.43 16.248-1.957 2.936-5.152 2.85-7.065 1.17-2.507-2.198-3.113-10.912-4.453-15.257-1.124-3.644-7.244-4.809-8.628-1.74-.694 1.538-1.678 12.278-4.303 15.74-2.118 2.793-6.948 2.02-8.605-1.025-2.448-4.494-4.832-14.14-7.174-15.028-3.134-1.188-1.937-1.056-9.272.786-3.165.795-3.193 13.006-5.018 15.557-.861 1.203-8.643 1.29-10.705-4.471-.99-2.77-.461-29.486-.71-32.3-1.612-18.28 9.619-35.857 27.849-41.564a39.74 39.74 0 0 1 25.146.427c11.47 4.036 20.96 13.242 24.872 25.737l-38.092 11.93z" fill="#f16c00"/><path d="M74.633 32.778a10.932 10.932 0 0 1-7.17 13.697 10.932 10.932 0 0 1-13.697-7.168 10.932 10.932 0 0 1 7.167-13.698 10.932 10.932 0 0 1 13.698 7.166L64.2 36.042z" fill="#fff"/><path d="M71.269 35.959a7.433 7.433 0 0 1-4.875 9.313 7.433 7.433 0 0 1-9.314-4.874 7.433 7.433 0 0 1 4.873-9.314 7.433 7.433 0 0 1 9.315 4.872l-7.094 2.222z" fill="#00f"/><path d="M46.815 32.827a10.932 10.932 0 0 1-7.169 13.696 10.932 10.932 0 0 1-13.697-7.168 10.932 10.932 0 0 1 7.167-13.698 10.932 10.932 0 0 1 13.698 7.166L36.382 36.09z" fill="#fff"/><path d="M43.451 36.007a7.433 7.433 0 0 1-4.875 9.313 7.433 7.433 0 0 1-9.313-4.874 7.433 7.433 0 0 1 4.873-9.314 7.433 7.433 0 0 1 9.315 4.873l-7.094 2.221z" fill="#00f"/></svg>
